modules/linea-basic/icons/basic-notebook-pencil.svg

<svg xmlns="http://www.w3.org/2000/svg" width="64" height="64" viewBox="0 0 64 64"><path fill="none" stroke="#000" stroke-width="2" stroke-miterlimit="10" d="M4 3h40v58H4zm30 0v57M8 16H0m8-8H0m8 16H0m8 8H0m8 8H0m8 8H0m8 8H0M55 1v53l4 8 4-8V1zm0 10h8"/></svg>

<svg xmlns="http://www.w3.org/2000/svg" width="64" height="64" viewBox="0 0 64 64"><path fill="none" stroke="#000" stroke-width="2" stroke-miterlimit="10" d="M4 3h40v58H4zM34 3v57M8 16H0M8 8H0M8 24H0M8 32H0M8 40H0M8 48H0M8 56H0M55 1v53l4 8 4-8V1zM55 11h8"/></svg>
